X: 27
T: No_34_It_Was_the_Turtle.krn
N: Derived from No_34_It_Was_the_Turtle.krn
%%abc-version 2.0
%%abcx-abcm2ps-target-version 5.9.1 (29 Sep 2008)
%%abc-creator hum2abc beta
%%abcx-conversion-date 2019/03/15 08:27:55
%%humdrum-veritas 3632492421
%%humdrum-veritas-data 2042194157
%%linebreak <none>
%%barnumbers 0
L: 1/8
M: 2/4
K: Ab clef=bass
[K:clef=bass][M:2/4]C2B,=B, [I:setbarnb 2]| 
C2B,=B, | 
C2=A,G, | 
F,F,F,2 | 
F,2F, z | 
[M:3/4]CC B,CA,2 | 
[M:2/4]CB, CA, | 
A,2F,F, | 
[M:3/4]F,2F,2F, z | 
CA, A,F, F,F, | 
F,2F,2F, z | 
[M:5/8]CB,B,CA, | 
[M:2/4]B,B, A,A, | 
[M:3/4]A,2A,2A, z | 
[M:5/8]B,A,A,A,F, | 
[M:2/4]A,A, F,F, | 
[M:3/4]F,2F,2F, z :|]  



